**kern	**silbe	**kern	**silbe
*ICvox	*	*ICvox	*
*B-:	*	*B-:	*
*M4/4	*	*M4/4	*
*clefF4	*	*clefF4	*
r;	.	1r	.
r;	.	1r	.
=1	=1	=1	=1
1r	.	1r	.
=2	=2	=2	=2
1r	.	1r	.
=3	=3	=3	=3
1r	.	1r	.
=4	=4	=4	=4
1r	.	1r	.
=5	=5	=5	=5
4D	You've	1r	.
8D	cut	.	.
8[D	out	.	.
4D]	_	.	.
8C	your	.	.
8[C	dan	.	.
=6	=6	=6	=6
8C]	_	1r	.
8BB-	cing,	.	.
4r	.	.	.
8r	.	.	.
8[D	and	.	.
8D]	_	.	.
8D	you	.	.
=7	=7	=7	=7
8E-	ne-	1r	.
8[E-	-ver	.	.
4E-]	_	.	.
8E-	see	.	.
8[D	a	.	.
8D]	_	.	.
8[C	show	.	.
=8	=8	=8	=8
8C]	_	1r	.
8r	.	.	.
4r	.	.	.
4r	.	.	.
8D	Your	.	.
8[E-	friends	.	.
=9	=9	=9	=9
4E-]	_	1r	.
4E-	come	.	.
4.E-	by	.	.
8D	to	.	.
=10	=10	=10	=10
4D	pick	1r	.
8C	you	.	.
8[C	up,	.	.
8C]	_	.	.
8[D	and	.	.
8D]	_	.	.
8E-	you	.	.
=11	=11	=11	=11
4[F	hard	1r	.
8F]	_	.	.
8G	ly	.	.
8F	e-	.	.
8[E-	-ver	.	.
8E-]	_	.	.
8[D	go	.	.
=12	=12	=12	=12
4D]	_	1r	.
4r	.	.	.
4r	.	.	.
8F	It	.	.
8[G	seems	.	.
=13	=13	=13	=13
4G]	_	1r	.
4F#	your	.	.
4G	head	.	.
8A	is	.	.
8[B-	in	.	.
=14	=14	=14	=14
4B-]	_	1r	.
8B-	the	.	.
8[A	clouds	.	.
4A]	_	.	.
8G	a-	.	.
8[F	-bove	.	.
=15	=15	=15	=15
2.F]	...	1r	.
4r	.	.	.
=16	=16	=16	=16
4r	.	1r	.
4AA	you've	.	.
4BB-	got	.	.
8C	the	.	.
8[D	ways	.	.
=17	=17	=17	=17
2.D_	_	4r	.
.	.	4BB-	(you've
.	.	4AA	got
8D]	_	4GG	the
8r	.	.	.
=18	=18	=18	=18
4r	.	2FF	ways)
8FF	of	.	.
8FF	a	.	.
8AA	wo-	2r	.
8AA	-man	.	.
4C	in	.	.
=19	=19	=19	=19
2BB-	love.	2r	.
2r	.	2BB-	(In
=20	=20	=20	=20
1r	.	2BB-	love...)
.	.	2r	.
=21	=21	=21	=21
8D	I	1r	.
8[D	walked	.	.
4D]	_	.	.
4D	by	.	.
8C	your	.	.
8[C	house	.	.
=22	=22	=22	=22
4C]	_	1r	.
8BB-	to-	.	.
8[BB-	-night	.	.
8BB-]	_	.	.
4.D	and	.	.
=23	=23	=23	=23
4E-	hoped	1r	.
8E-	that	.	.
8[E-	I	.	.
4E-]	_	.	.
8D	might	.	.
8[C	see	.	.
=24	=24	=24	=24
4C]	...	1r	.
4r	.	.	.
4r	.	.	.
8D	the	.	.
8[E-	guy	.	.
=25	=25	=25	=25
4E-]	_	1r	.
4E-	who's	.	.
8E-	got	.	.
8[D	you	.	.
8D]	_	.	.
8[D	in	.	.
=26	=26	=26	=26
4D]	_	1r	.
4C	a	.	.
4C	spin,	.	.
8E-	I	.	.
8[F	wish	.	.
=27	=27	=27	=27
4F]	_	1r	.
4F	that	.	.
4F	guy	.	.
4E-	was	.	.
=28	=28	=28	=28
4D	me!	1r	.
4r	.	.	.
4r	.	.	.
8F	I	.	.
8[G	don't	.	.
=29	=29	=29	=29
4G]	_	1r	.
4G	know	.	.
4G	why	.	.
8G	it's	.	.
8[G	you	.	.
=30	=30	=30	=30
8G]	_	1r	.
8[G	I'm	.	.
4G]	_	.	.
4F	drea-	.	.
8E-	-ming	.	.
8[F	of	.	.
=31	=31	=31	=31
2.F]	...	1r	.
4r	.	.	.
=32	=32	=32	=32
4r	.	1r	.
4AA	you've	.	.
4BB-	got	.	.
8C	the	.	.
8D	ways	.	.
=33	=33	=33	=33
2.[D	_	4r	.
.	.	4BB-	(you've
.	.	4AA	got
8D]	_	4GG	the
8r	.	.	.
=34	=34	=34	=34
4r	.	2FF	ways)
8FF	of	.	.
8FF	a	.	.
8AA	wo-	2r	.
8AA	-man	.	.
4C	in	.	.
=35	=35	=35	=35
2BB-	love.	2r	.
2r	.	2BB-	(In
=36	=36	=36	=36
1r	.	2BB-	love...)
.	.	2r	.
=37	=37	=37	=37
8G	Ma-	1r	.
8[G	-ny	.	.
4G]	_	.	.
4G	is	.	.
8A	the	.	.
8[B-	night	.	.
=38	=38	=38	=38
2B-_	_	1r	.
8B-]	_	.	.
8[G	I've	.	.
4G]	_	.	.
=39	=39	=39	=39
4F	stayed	1r	.
8F	a-	.	.
8[F	-wake	.	.
8F]	_	.	.
8[D	and	.	.
4D]	_	.	.
=40	=40	=40	=40
4[F	cried	1r	.
8F]	...	.	.
8r	.	.	.
2r	.	.	.
=41	=41	=41	=41
4G	Now	1r	.
4G	you'll	.	.
8G	ne-	.	.
8[A	-ver	.	.
8A]	_	.	.
8[B-	know	.	.
=42	=42	=42	=42
8B-]	_	1r	.
8[B-	how	.	.
8B-]	_	.	.
8[A	much	.	.
8A]	_	.	.
8[G	you	.	.
8G]	_	.	.
8[F	hurt	.	.
=43	=43	=43	=43
4F]	_	1r	.
4F	my	.	.
4E-	foo-	.	.
4D	-lish	.	.
=44	=44	=44	=44
2.C	pride...	1r	.
4r	.	.	.
=45	=45	=45	=45
1r	.	1r	.
=46	=46	=46	=46
4D	I	1r	.
8D	re-	.	.
8[D	-call	.	.
4D]	_	.	.
4C	your	.	.
=47	=47	=47	=47
8C	kis-	1r	.
8[BB-	-ses,	.	.
4BB-]	_	.	.
4r	.	.	.
8D	the	.	.
8[E-	times	.	.
=48	=48	=48	=48
4E-]	_	1r	.
4E-	I	.	.
4E-	held	.	.
8D	you	.	.
8[C	tight,	.	.
=49	=49	=49	=49
4C]	_	1r	.
4r	.	.	.
4r	.	.	.
4D	now	.	.
=50	=50	=50	=50
8E-	when	1r	.
8[E-	I	.	.
4E-]	_	.	.
4.E-	come	.	.
8D	to	.	.
=51	=51	=51	=51
8D	see	1r	.
8[C	you,	.	.
4C]	_	.	.
4r	.	.	.
4E-	you're	.	.
=52	=52	=52	=52
8F	sit-	1r	.
8[F	-ting	.	.
8F]	_	.	.
8[F	in	.	.
4F]	_	.	.
8E-	the	.	.
8[D	light	.	.
=53	=53	=53	=53
4D]	_	1r	.
4r	.	.	.
2r	.	.	.
=54	=54	=54	=54
8G	Mis-	1r	.
8[G	-sing	.	.
8G]	_	.	.
8[G	all	.	.
4G]	_	.	.
8G	the	.	.
8[G	things	.	.
=55	=55	=55	=55
4G]	_	1r	.
8G	that	.	.
8[F	we	.	.
4F]	_	.	.
4E-	dreamed	.	.
=56	=56	=56	=56
1F	of...	1r	.
=57	=57	=57	=57
4r	.	1r	.
4AA	you've	.	.
4BB-	got	.	.
8C	the	.	.
8D	ways	.	.
=58	=58	=58	=58
2.[D	_	4r	.
.	.	4BB-	(you've
.	.	4AA	got
8D]	_	4GG	the
8r	.	.	.
=59	=59	=59	=59
4r	.	2FF	ways)
8FF	of	.	.
8FF	a	.	.
8AA	wo-	2r	.
8AA	-man	.	.
4C	in	.	.
=60	=60	=60	=60
2BB-	love.	2r	.
2r	.	2BB-	(In
=61	=61	=61	=61
1r	.	2BB-	love...)
.	.	2r	.
=62	=62	=62	=62
1r	.	1r	.
=63	=63	=63	=63
1r	.	1r	.
=64	=64	=64	=64
1r	.	1r	.
=65	=65	=65	=65
1r	.	1r	.
=66	=66	=66	=66
1r	.	1r	.
=67	=67	=67	=67
1r	.	1r	.
=68	=68	=68	=68
1r	.	1r	.
=69	=69	=69	=69
1r	.	1r	.
=70	=70	=70	=70
8G	Ma-	1r	.
8[G	-ny	.	.
4G]	_	.	.
4G	is	.	.
8A	the	.	.
8[B-	night	.	.
=71	=71	=71	=71
2B-_	_	1r	.
8B-]	_	.	.
8[G	I've	.	.
4G]	_	.	.
=72	=72	=72	=72
4F	stayed	1r	.
8F	a-	.	.
8[F	-wake	.	.
8F]	_	.	.
8E-	and	.	.
4D	_	.	.
=73	=73	=73	=73
4.F	cried	1r	.
8r	.	.	.
2r	.	.	.
=74	=74	=74	=74
4G	Now	1r	.
4G	you'll	.	.
8G	ne-	.	.
8[A	-ver	.	.
8A]	_	.	.
8[B-	know	.	.
=75	=75	=75	=75
8B-]	_	1r	.
8[B-	how	.	.
8B-]	_	.	.
8[A	much	.	.
8A]	_	.	.
8[G	you	.	.
8G]	_	.	.
8[F	hurt	.	.
=76	=76	=76	=76
4F]	_	1r	.
4F	my	.	.
4E-	foo-	.	.
4D	-lish	.	.
=77	=77	=77	=77
1C	pride...	1r	.
=78	=78	=78	=78
1r	.	1r	.
=79	=79	=79	=79
4D	I	1r	.
8D	re-	.	.
8[D	-call	.	.
4D]	_	.	.
4C	your	.	.
=80	=80	=80	=80
8C	kis-	1r	.
8[BB-	-ses,	.	.
4BB-]	_	.	.
4r	.	.	.
8D	the	.	.
8[E-	times	.	.
=81	=81	=81	=81
4E-]	_	1r	.
4E-	I	.	.
4E-	held	.	.
8D	you	.	.
8[C	tight,	.	.
=82	=82	=82	=82
4C]	_	1r	.
4r	.	.	.
4r	.	.	.
4D	now	.	.
=83	=83	=83	=83
8E-	when	1r	.
8[E-	I	.	.
4E-]	_	.	.
4.E-	come	.	.
8D	to	.	.
=84	=84	=84	=84
8D	see	1r	.
8[C	you,	.	.
4C]	_	.	.
4r	.	.	.
4E-	you're	.	.
=85	=85	=85	=85
8F	sit-	1r	.
8[F	-ting	.	.
8F]	_	.	.
8[F	in	.	.
4F]	_	.	.
8E-	the	.	.
8[D	light	.	.
=86	=86	=86	=86
4D]	_	1r	.
4r	.	.	.
2r	.	.	.
=87	=87	=87	=87
8G	Mis-	1r	.
8[G	-sing	.	.
8G]	_	.	.
8[G	all	.	.
4G]	_	.	.
8G	the	.	.
8[G	things	.	.
=88	=88	=88	=88
4G]	_	1r	.
8G	that	.	.
8[F	we	.	.
4F]	_	.	.
4E-	dreamed	.	.
=89	=89	=89	=89
1F	of...	1r	.
=90	=90	=90	=90
4r	.	1r	.
4AA	You've	.	.
4BB-	got	.	.
8C	the	.	.
8D	ways	.	.
=91	=91	=91	=91
2.[D	_	4r	.
.	.	4BB-	(you've
.	.	4AA	got
8D]	_	4GG	the
8r	.	.	.
=92	=92	=92	=92
4r	.	2FF	ways)
8FF	of	.	.
8FF	a	.	.
8AA	wo-	2r	.
8AA	-man	.	.
4C	in	.	.
=93	=93	=93	=93
2BB-	love.	2r	.
2r	.	2BB-	(In
=94	=94	=94	=94
4r	.	2BB-	love...)
4AA	You've	.	.
4BB-	got	2r	.
8C	the	.	.
8[D	ways	.	.
=95	=95	=95	=95
2.D_	_	4r	.
.	.	4BB-	(you've
.	.	4AA	got
8D]	_	4GG	the
8r	.	.	.
=96	=96	=96	=96
4r	.	2FF	ways)
8FF	of	.	.
8FF	a	.	.
8AA	wo-	2r	.
8AA	-man	.	.
4C	in	.	.
=97	=97	=97	=97
2BB-	love.	2r	.
2r	.	2BB- 2F 2B- 2d	(In
=98	=98	=98	=98
1r	.	1BB-; 1F 1B- 1d	love...)
r;	.	1r	.
r;	.	1r	.
*-	*-	*-	*-
!!!ENC: Nathaniel Condit-Schultz